svgs/duotone/calendar-clock.svg

<svg xmlns="http://www.w3.org/2000/svg" viewBox="0 0 576 512"><!-- Font Awesome Pro 6.0.0-alpha2 by @fontawesome - https://fontawesome.com License - https://fontawesome.com/license (Commercial License) --><defs><style>.fa-secondary{opacity:.4}</style></defs><path d="M448 192H432C437.402 192 442.723 192.33 448 192.807V192ZM256 368C256 270.799 334.799 192 432 192H0V464C0 490.5 21.5 512 48 512H331.002C285.691 480.158 256 427.586 256 368Z" class="fa-secondary"/><path d="M448 112C448 85.49 426.51 64 400 64H352V32C352 14.327 337.673 0 320 0H320C302.327 0 288 14.327 288 32V64H160V32C160 14.327 145.673 0 128 0H128C110.327 0 96 14.327 96 32V64H48C21.49 64 0 85.49 0 112V192H448V112ZM432.002 224C352.463 224 288 288.463 288 368S352.463 512 432.002 512C511.537 512 576 447.537 576 368S511.537 224 432.002 224ZM480 384H432C423.156 384 416 376.844 416 368V304.797C416 295.953 423.156 288.797 432 288.797S448 295.953 448 304.797V352H480C488.844 352 496 359.156 496 368S488.844 384 480 384Z" class="fa-primary"/></svg>

<svg xmlns="http://www.w3.org/2000/svg" viewBox="0 0 576 512"><!--! Font Awesome Pro 6.4.0 by @fontawesome - https://fontawesome.com License - https://fontawesome.com/license (Commercial License) Copyright 2023 Fonticons, Inc. --><defs><style>.fa-secondary{opacity:.4}</style></defs><path class="fa-primary" d="M128 0C110.3 0 96 14.3 96 32V64H48C21.5 64 0 85.5 0 112v80H448V112c0-26.5-21.5-48-48-48H352V32c0-17.7-14.3-32-32-32s-32 14.3-32 32V64H160V32c0-17.7-14.3-32-32-32zM576 368a144 144 0 1 0 -288 0 144 144 0 1 0 288 0zM432 288c8.8 0 16 7.2 16 16v48h32c8.8 0 16 7.2 16 16s-7.2 16-16 16H432c-8.8 0-16-7.2-16-16V304c0-8.8 7.2-16 16-16z"/><path class="fa-secondary" d="M432 192H0V464c0 26.5 21.5 48 48 48H330.8C285.6 480.1 256 427.5 256 368c0-97.2 78.8-176 176-176zm0 0c5.4 0 10.7 .2 16 .7V192H432z"/></svg>
